X: 3016
M: C|
L: 1/8
K: G
d2 |\
d2d2 e2fg | f4 f2d2 | gfed ^c3d | d6 :|
|: ff |\
f2g2 e3f | ^d4 ^d2ee | f2g2 f3e | e2B2 B3c |\
d3d | A3B | c4 cdef |
g2B2 A3G |\
d2cB A3G | (G2 !segno!:: G6) |]


